public/assets/trusts-llama/okx.svg

<svg fill="none" height="19" viewBox="0 0 63 19" width="63" xmlns="http://www.w3.org/2000/svg"><g fill="#fff"><path d="m.428711.233128v18.243872h18.507689v-18.247752zm12.338489 12.163872h-6.16926v-6.08388h6.16926z"/><path d="m40.5325 12.3931v6.0838h-6.1692v-6.08c2.0486 0 4.1167 0 6.1692-.0038z"/><path d="m34.3633 12.3968c-2.0525 0-4.1205 0-6.1731-.0039v6.0839h-6.1692v-18.24389h6.1692v6.07999h6.1731c-.0194 2.02149 0 4.0624 0 6.0839z"/><path d="m40.5326.23291v6.07999c0 .30652-5.5368 0-6.1692 0 .0155-2.02149-.0156-4.0585 0-6.07999z"/><path d="m49.7869 6.3129c-2.0525-.01552-4.1206.01164-6.1692 0v-6.07999h6.1692c.0116 2.02149-.0194 4.0585 0 6.07999z"/><path d="m55.9554 12.3971c-2.0526-.0155-4.1206-.0155-6.1693 0 0-2.0215.0156-4.06238 0-6.08387 2.0487.0194 4.1167.0194 6.1693 0-.0194 2.02149 0 4.06237 0 6.08387z"/><path d="m62.1249.23291v6.07999c-2.0526.01164-4.1206-.01552-6.1693 0 .0155-2.02149-.0116-4.0585 0-6.07999z"/><path d="m49.7869 12.3972v6.0799h-6.1692v-6.0838c2.0486-.0078 4.1167.0194 6.1692.0039z"/><path d="m62.1248 12.3933v6.0838h-6.1692v-6.0799c2.0525.0155 4.1205-.0117 6.1692-.0039z"/></g></svg>

<svg xmlns="http://www.w3.org/2000/svg" width="63" height="19" viewBox="0 0 63 19" fill="none">
  <path d="M0.428711 0.233128V18.477H18.9364V0.229248L0.428711 0.233128ZM12.7672 12.397H6.59794V6.31312H12.7672V12.397Z" fill="white"/>
  <path d="M40.5325 12.3931V18.4769H34.3633V12.3969C36.4119 12.3969 38.48 12.3969 40.5325 12.3931Z" fill="white"/>
  <path d="M34.3633 12.3968C32.3108 12.3968 30.2428 12.3968 28.1902 12.3929V18.4768H22.021V0.23291H28.1902V6.3129H34.3633C34.3439 8.33439 34.3633 10.3753 34.3633 12.3968Z" fill="white"/>
  <path d="M40.5326 0.23291V6.3129C40.5326 6.61942 34.9958 6.3129 34.3634 6.3129C34.3789 4.29141 34.3478 2.2544 34.3634 0.23291H40.5326Z" fill="white"/>
  <path d="M49.7869 6.3129C47.7344 6.29738 45.6663 6.32454 43.6177 6.3129V0.23291H49.7869C49.7985 2.2544 49.7675 4.29141 49.7869 6.3129Z" fill="white"/>
  <path d="M55.9554 12.3971C53.9028 12.3816 51.8348 12.3816 49.7861 12.3971C49.7861 10.3756 49.8017 8.33472 49.7861 6.31323C51.8348 6.33263 53.9028 6.33263 55.9554 6.31323C55.936 8.33472 55.9554 10.3756 55.9554 12.3971Z" fill="white"/>
  <path d="M62.1249 0.23291V6.3129C60.0723 6.32454 58.0043 6.29738 55.9556 6.3129C55.9711 4.29141 55.944 2.2544 55.9556 0.23291H62.1249Z" fill="white"/>
  <path d="M49.7869 12.3972V18.4771H43.6177V12.3933C45.6663 12.3855 47.7344 12.4127 49.7869 12.3972Z" fill="white"/>
  <path d="M62.1248 12.3933V18.4771H55.9556V12.3972C58.0081 12.4127 60.0761 12.3855 62.1248 12.3933Z" fill="white"/>
</svg>
